packages/icon/src/svg/volume-off.icon.svg

<svg width="24" height="24" viewBox="0 0 24 24" fill="none" xmlns="http://www.w3.org/2000/svg">
<path fill-rule="evenodd" clip-rule="evenodd" d="M7 7.99997L12.1465 2.85349C12.4614 2.53855 13 2.76157 13 3.20712V20.7928C13 21.2384 12.4614 21.4614 12.1465 21.1465L7 16H4C3.44775 16 3 15.5522 3 15V8.99997C3 8.44773 3.44775 7.99997 4 7.99997H7ZM5 9.99997V14H8L11 17V6.99997L8 9.99997H5ZM21.182 10.2323L19.4142 12L21.182 13.7678C21.3772 13.963 21.3772 14.2796 21.182 14.4748L20.4749 15.182C20.2797 15.3772 19.963 15.3772 19.7678 15.182L18 13.4142L16.2323 15.182C16.037 15.3772 15.7205 15.3772 15.5251 15.182L14.818 14.4748C14.6228 14.2796 14.6228 13.963 14.818 13.7678L16.5858 12L14.818 10.2323C14.6228 10.037 14.6228 9.72043 14.818 9.52512L15.5251 8.81796C15.7205 8.62277 16.037 8.62277 16.2323 8.81796L18 10.5858L19.7678 8.81796C19.963 8.62277 20.2797 8.62277 20.4749 8.81796L21.182 9.52512C21.3772 9.72043 21.3772 10.037 21.182 10.2323Z" fill="white"/>
</svg>

<svg aria-label="volume off icon" viewBox="0 0 24 24"><path fill-rule="evenodd" clip-rule="evenodd" d="M7 8l5.146-5.147a.5.5 0 01.854.354v17.586a.5.5 0 01-.854.354L7 16H4a1 1 0 01-1-1V9a1 1 0 011-1h3zm-2 2v4h3l3 3V7l-3 3H5zm16.182.232L19.414 12l1.768 1.768a.5.5 0 010 .707l-.707.707a.5.5 0 01-.707 0L18 13.414l-1.768 1.768a.5.5 0 01-.707 0l-.707-.707a.5.5 0 010-.707L16.586 12l-1.768-1.768a.5.5 0 010-.707l.707-.707a.5.5 0 01.707 0L18 10.586l1.768-1.768a.5.5 0 01.707 0l.707.707a.5.5 0 010 .707z"/></svg>
